places/48/gnome-fs-directory-accept.svg

<?xml version="1.0" encoding="UTF-8" standalone="no"?>
<!-- Created with Inkscape (http://www.inkscape.org/) -->

<svg
   xmlns:svg="http://www.w3.org/2000/svg"
   xmlns="http://www.w3.org/2000/svg"
   xmlns:xlink="http://www.w3.org/1999/xlink"
   version="1.1"
   width="48"
   height="48"
   id="svg3439">
  <defs
     id="defs3441">
    <linearGradient
       id="linearGradient3484">
      <stop
         id="stop3486"
         style="stop-color:#bdbdbd;stop-opacity:1"
         offset="0" />
      <stop
         id="stop3488"
         style="stop-color:#d0d0d0;stop-opacity:1"
         offset="1" />
    </linearGradient>
    <radialGradient
       cx="3"
       cy="5.01718"
       r="21"
       fx="3"
       fy="5.01718"
       id="radialGradient2594"
       xlink:href="#linearGradient3484"
       gradientUnits="userSpaceOnUse"
       gradientTransform="matrix(-1.274898e-8,1.7142916,-2.159331,-1.4599595e-8,12.812715,2.8570011)" />
    <linearGradient
       id="linearGradient6404">
      <stop
         id="stop6406"
         style="stop-color:#f9f9f9;stop-opacity:1"
         offset="0" />
      <stop
         id="stop6408"
         style="stop-color:#c9c9c9;stop-opacity:1"
         offset="1" />
    </linearGradient>
    <linearGradient
       x1="12.003353"
       y1="17.999937"
       x2="12.003353"
       y2="21.003336"
       id="linearGradient3437"
       xlink:href="#linearGradient6404"
       gradientUnits="userSpaceOnUse" />
    <radialGradient
       cx="605.71429"
       cy="486.64789"
       r="117.14286"
       fx="605.71429"
       fy="486.64789"
       id="radialGradient7600"
       xlink:href="#linearGradient5060"
       gradientUnits="userSpaceOnUse"
       gradientTransform="matrix(-0.03212956,0,0,0.03705882,23.363215,25.412461)" />
    <linearGradient
       id="linearGradient5060">
      <stop
         id="stop5062"
         style="stop-color:black;stop-opacity:1"
         offset="0" />
      <stop
         id="stop5064"
         style="stop-color:black;stop-opacity:0"
         offset="1" />
    </linearGradient>
    <radialGradient
       cx="605.71429"
       cy="486.64789"
       r="117.14286"
       fx="605.71429"
       fy="486.64789"
       id="radialGradient7598"
       xlink:href="#linearGradient5060"
       gradientUnits="userSpaceOnUse"
       gradientTransform="matrix(0.03212956,0,0,0.03705882,24.636785,25.412461)" />
    <linearGradient
       id="linearGradient5048">
      <stop
         id="stop5050"
         style="stop-color:black;stop-opacity:0"
         offset="0" />
      <stop
         id="stop5056"
         style="stop-color:black;stop-opacity:1"
         offset="0.5" />
      <stop
         id="stop5052"
         style="stop-color:black;stop-opacity:0"
         offset="1" />
    </linearGradient>
    <linearGradient
       x1="302.85715"
       y1="366.64789"
       x2="302.85715"
       y2="609.50507"
       id="linearGradient7596"
       xlink:href="#linearGradient5048"
       gradientUnits="userSpaceOnUse"
       gradientTransform="matrix(0.08284024,0,0,0.03705882,-5.9408285,25.412461)" />
    <linearGradient
       id="linearGradient3390">
      <stop
         id="stop3392"
         style="stop-color:#425e7b;stop-opacity:1"
         offset="0" />
      <stop
         id="stop3394"
         style="stop-color:#7a91a7;stop-opacity:1"
         offset="1" />
    </linearGradient>
    <linearGradient
       x1="34.954498"
       y1="45.114197"
       x2="25.474075"
       y2="20.980713"
       id="linearGradient3413"
       xlink:href="#linearGradient3390"
       gradientUnits="userSpaceOnUse" />
    <linearGradient
       id="linearGradient7012-661-145-733-759-865-745">
      <stop
         id="stop2699"
         style="stop-color:#9cbbd9;stop-opacity:1"
         offset="0" />
      <stop
         id="stop2701"
         style="stop-color:#5c82ab;stop-opacity:1"
         offset="1" />
    </linearGradient>
    <radialGradient
       cx="13.857143"
       cy="19.54422"
       r="24.097353"
       fx="13.857143"
       fy="19.54422"
       id="radialGradient3429"
       xlink:href="#linearGradient7012-661-145-733-759-865-745"
       gradientUnits="userSpaceOnUse"
       gradientTransform="matrix(1.4880117,0,0,0.7912602,-6.7624485,10.821151)" />
    <linearGradient
       id="linearGradient6129-963-697-142-998">
      <stop
         id="stop4661"
         style="stop-color:black;stop-opacity:0.498"
         offset="0" />
      <stop
         id="stop4663"
         style="stop-color:black;stop-opacity:0"
         offset="1" />
    </linearGradient>
    <linearGradient
       x1="22.934725"
       y1="49.629246"
       x2="22.809399"
       y2="36.657963"
       id="linearGradient2588"
       xlink:href="#linearGradient6129-963-697-142-998"
       gradientUnits="userSpaceOnUse"
       gradientTransform="matrix(1.1446925,0,0,0.8146303,-3.4627884,9.0854578)" />
    <linearGradient
       id="linearGradient8265-821-176-38-919">
      <stop
         id="stop4667"
         style="stop-color:white;stop-opacity:1"
         offset="0" />
      <stop
         id="stop4669"
         style="stop-color:white;stop-opacity:0"
         offset="1" />
    </linearGradient>
    <linearGradient
       x1="13.079692"
       y1="20.730078"
       x2="16.36186"
       y2="32.979298"
       id="linearGradient2585"
       xlink:href="#linearGradient8265-821-176-38-919"
       gradientUnits="userSpaceOnUse"
       gradientTransform="matrix(1.1446925,0,0,0.8040948,-3.4627884,9.2434909)" />
    <linearGradient
       id="linearGradient6087-437-184-795-110">
      <stop
         id="stop4655"
         style="stop-color:white;stop-opacity:1"
         offset="0" />
      <stop
         id="stop4657"
         style="stop-color:white;stop-opacity:0"
         offset="1" />
    </linearGradient>
    <radialGradient
       cx="7.2646537"
       cy="8.3021259"
       r="20.979567"
       fx="7.2646537"
       fy="8.3021259"
       id="radialGradient2582"
       xlink:href="#linearGradient6087-437-184-795-110"
       gradientUnits="userSpaceOnUse"
       gradientTransform="matrix(0,0.9862682,-1.6271642,0,26.375101,14.93757)" />
  </defs>
  <g
     id="layer1">
    <path
       d="m 5.5033529,8.4999995 c -0.6902717,0.00767 -1,0.3421461 -1,1 l 0,2.0066475 -1,0 c -0.6902728,0.0077 -0.9999999,0.342147 -0.9999999,1 0.034412,10.290045 0.012856,20.714383 0,30.993353 38.909596,0 42.999999,-4.782338 42.999999,-24.541834 l 0,-6.451519 c 0,-0.657853 -0.554204,-1.007671 -1.244479,-1 l -22.75552,0 0,-2.0066475 c 0,-0.6578539 -0.309729,-1.0076715 -1,-1 l -15.0000001,0 z"
       id="path6387"
       style="fill:url(#linearGradient3437);fill-opacity:1;stroke:url(#radialGradient2594);stroke-width:1.00000012;stroke-linecap:round;stroke-linejoin:round;stroke-miterlimit:4;stroke-opacity:1;stroke-dasharray:none;display:inline" />
    <g
       transform="matrix(0.9583333,0,0,0.6666667,1.0033537,15)"
       id="g2530"
       style="opacity:0.4">
      <rect
         width="40"
         height="9"
         x="4"
         y="39"
         id="rect2532"
         style="fill:url(#linearGradient7596);fill-opacity:1;fill-rule:nonzero;stroke:none;stroke-width:1;marker:none;visibility:visible;display:inline;overflow:visible" />
      <path
         d="m 44,39.00031 c 0,0 0,8.999504 0,8.999504 1.654593,0.01694 4.000001,-2.016333 4,-4.500331 0,-2.483999 -1.846402,-4.499173 -4,-4.499173 z"
         id="path2534"
         style="fill:url(#radialGradient7598);fill-opacity:1;fill-rule:nonzero;stroke:none;stroke-width:1;marker:none;visibility:visible;display:inline;overflow:visible" />
      <path
         d="m 4,39.00031 c 0,0 0,8.999504 0,8.999504 C 2.3454068,48.016755 0,45.983481 0,43.499483 0,41.015484 1.8464008,39.00031 4,39.00031 z"
         id="path2536"
         style="fill:url(#radialGradient7600);fill-opacity:1;fill-rule:nonzero;stroke:none;stroke-width:1;marker:none;visibility:visible;display:inline;overflow:visible" />
    </g>
    <path
       d="m 1.0653529,21.5 c -1.07270715,0.100992 -0.49947295,1.279221 -0.58500005,1.866173 0.30046111,1.216969 1.97642245,19.433868 2.17925005,20.746557 0.3418359,0.788453 1.5944345,0.384685 2.3881168,0.484775 13.1935443,0 26.3870893,0 39.5806333,0 1.089379,-0.08708 0.636457,-1.149321 0.789703,-1.757245 0.06207,-0.884547 1.706566,-14.739761 2.179297,-20.746557 C 47.346181,21.31456 46.109606,21.5 45.334353,21.5 c -14.089378,0 -30.179622,0 -44.2690001,0 z"
       id="path7314"
       style="fill:url(#radialGradient3429);fill-opacity:1;stroke:url(#linearGradient3413);stroke-width:1.00000024;stroke-linecap:round;stroke-linejoin:round;stroke-miterlimit:4;stroke-opacity:1;stroke-dashoffset:0" />
    <path
       d="m 1.0613529,21.304912 45.8970001,3.3e-4 c 0.63416,0 1.045,0.363009 1.045,0.814314 L 45.75899,44.114561 c 0,0.451305 -0.510532,0.81463 -1.14469,0.81463 l -41.2089349,0 c -0.6341599,0 -1.1446927,-0.363325 -1.1446927,-0.81463 L 0.01635285,22.119543 c 0,-0.451306 0.4108401,-0.814631 1.04500005,-0.814631 z"
       id="path2541"
       style="opacity:0.4;fill:url(#linearGradient2588);fill-opacity:1;stroke:none" />
    <path
       d="m 1.0613529,21 45.8970001,0 c 0.63416,0 1.045,0.663907 1.045,1.109377 l -0.46,6.002915 -46.84300015,5.828538 -0.684,-11.831824 C 0.01635285,21.663538 0.42719295,21 1.0613529,21 z"
       id="path8263"
       style="opacity:0.2;fill:url(#linearGradient2585);fill-opacity:1;stroke:none" />
    <path
       d="m 46.503353,22.5 c -13.53125,0 -31.46875,0 -45.0000001,0 0.2201843,0.893165 1.9272098,19.690463 2.2300103,21.161942"
       id="path2544"
       style="opacity:0.4;fill:none;stroke:url(#radialGradient2582);stroke-width:0.99999982;stroke-linecap:round;stroke-linejoin:round;stroke-miterlimit:4;stroke-opacity:1;stroke-dasharray:none" />
  </g>
</svg>

<?xml version="1.0" encoding="UTF-8" standalone="no"?>
<!-- Created with Inkscape (http://www.inkscape.org/) -->
<svg
   xmlns:dc="http://purl.org/dc/elements/1.1/"
   xmlns:cc="http://creativecommons.org/ns#"
   xmlns:rdf="http://www.w3.org/1999/02/22-rdf-syntax-ns#"
   xmlns:svg="http://www.w3.org/2000/svg"
   xmlns="http://www.w3.org/2000/svg"
   xmlns:xlink="http://www.w3.org/1999/xlink"
   xmlns:sodipodi="http://sodipodi.sourceforge.net/DTD/sodipodi-0.dtd"
   xmlns:inkscape="http://www.inkscape.org/namespaces/inkscape"
   width="48px"
   height="48px"
   id="svg3439"
   sodipodi:version="0.32"
   inkscape:version="0.46"
   sodipodi:docname="gnome-fs-directory-accept.svg"
   inkscape:output_extension="org.inkscape.output.svg.inkscape">
  <defs
     id="defs3441">
    <linearGradient
       id="linearGradient3484">
      <stop
         id="stop3486"
         offset="0"
         style="stop-color:#bdbdbd;stop-opacity:1" />
      <stop
         id="stop3488"
         offset="1"
         style="stop-color:#d0d0d0;stop-opacity:1" />
    </linearGradient>
    <radialGradient
       inkscape:collect="always"
       xlink:href="#linearGradient3484"
       id="radialGradient2594"
       gradientUnits="userSpaceOnUse"
       gradientTransform="matrix(-1.274898e-8,1.7142916,-2.159331,-1.4599595e-8,12.812715,2.8570011)"
       cx="3"
       cy="5.01718"
       fx="3"
       fy="5.01718"
       r="21" />
    <linearGradient
       id="linearGradient6404">
      <stop
         style="stop-color:#f9f9f9;stop-opacity:1;"
         offset="0"
         id="stop6406" />
      <stop
         style="stop-color:#c9c9c9;stop-opacity:1;"
         offset="1"
         id="stop6408" />
    </linearGradient>
    <linearGradient
       inkscape:collect="always"
       xlink:href="#linearGradient6404"
       id="linearGradient3437"
       x1="12.003353"
       y1="17.999937"
       x2="12.003353"
       y2="21.003336"
       gradientUnits="userSpaceOnUse" />
    <radialGradient
       r="117.14286"
       fy="486.64789"
       fx="605.71429"
       cy="486.64789"
       cx="605.71429"
       gradientTransform="matrix(-3.2129558e-2,0,0,3.7058823e-2,23.363215,25.412461)"
       gradientUnits="userSpaceOnUse"
       id="radialGradient7600"
       xlink:href="#linearGradient5060"
       inkscape:collect="always" />
    <linearGradient
       inkscape:collect="always"
       id="linearGradient5060">
      <stop
         style="stop-color:black;stop-opacity:1;"
         offset="0"
         id="stop5062" />
      <stop
         style="stop-color:black;stop-opacity:0;"
         offset="1"
         id="stop5064" />
    </linearGradient>
    <radialGradient
       r="117.14286"
       fy="486.64789"
       fx="605.71429"
       cy="486.64789"
       cx="605.71429"
       gradientTransform="matrix(3.2129565e-2,0,0,3.7058823e-2,24.636785,25.412461)"
       gradientUnits="userSpaceOnUse"
       id="radialGradient7598"
       xlink:href="#linearGradient5060"
       inkscape:collect="always" />
    <linearGradient
       id="linearGradient5048">
      <stop
         style="stop-color:black;stop-opacity:0;"
         offset="0"
         id="stop5050" />
      <stop
         id="stop5056"
         offset="0.5"
         style="stop-color:black;stop-opacity:1;" />
      <stop
         style="stop-color:black;stop-opacity:0;"
         offset="1"
         id="stop5052" />
    </linearGradient>
    <linearGradient
       y2="609.50507"
       x2="302.85715"
       y1="366.64789"
       x1="302.85715"
       gradientTransform="matrix(8.2840237e-2,0,0,3.7058823e-2,-5.9408285,25.412461)"
       gradientUnits="userSpaceOnUse"
       id="linearGradient7596"
       xlink:href="#linearGradient5048"
       inkscape:collect="always" />
    <linearGradient
       inkscape:collect="always"
       id="linearGradient3390">
      <stop
         style="stop-color:#425e7b;stop-opacity:1"
         offset="0"
         id="stop3392" />
      <stop
         style="stop-color:#7a91a7;stop-opacity:1"
         offset="1"
         id="stop3394" />
    </linearGradient>
    <linearGradient
       inkscape:collect="always"
       xlink:href="#linearGradient3390"
       id="linearGradient3413"
       x1="34.954498"
       y1="45.114197"
       x2="25.474075"
       y2="20.980713"
       gradientUnits="userSpaceOnUse" />
    <linearGradient
       id="linearGradient7012-661-145-733-759-865-745">
      <stop
         id="stop2699"
         offset="0"
         style="stop-color:#9cbbd9;stop-opacity:1;" />
      <stop
         id="stop2701"
         offset="1"
         style="stop-color:#5c82ab;stop-opacity:1;" />
    </linearGradient>
    <radialGradient
       inkscape:collect="always"
       xlink:href="#linearGradient7012-661-145-733-759-865-745"
       id="radialGradient3429"
       cx="13.857143"
       cy="19.54422"
       fx="13.857143"
       fy="19.54422"
       r="24.097353"
       gradientTransform="matrix(1.4880117,0,0,0.7912602,-6.7624485,10.821151)"
       gradientUnits="userSpaceOnUse" />
    <linearGradient
       inkscape:collect="always"
       id="linearGradient6129-963-697-142-998">
      <stop
         style="stop-color:#000000;stop-opacity:0.498"
         offset="0"
         id="stop4661" />
      <stop
         style="stop-color:#000000;stop-opacity:0;"
         offset="1"
         id="stop4663" />
    </linearGradient>
    <linearGradient
       inkscape:collect="always"
       xlink:href="#linearGradient6129-963-697-142-998"
       id="linearGradient2588"
       gradientUnits="userSpaceOnUse"
       gradientTransform="matrix(1.1446925,0,0,0.8146303,-3.4627884,9.0854578)"
       x1="22.934725"
       y1="49.629246"
       x2="22.809399"
       y2="36.657963" />
    <linearGradient
       inkscape:collect="always"
       id="linearGradient8265-821-176-38-919">
      <stop
         style="stop-color:#ffffff;stop-opacity:1;"
         offset="0"
         id="stop4667" />
      <stop
         style="stop-color:#ffffff;stop-opacity:0;"
         offset="1"
         id="stop4669" />
    </linearGradient>
    <linearGradient
       inkscape:collect="always"
       xlink:href="#linearGradient8265-821-176-38-919"
       id="linearGradient2585"
       gradientUnits="userSpaceOnUse"
       gradientTransform="matrix(1.1446925,0,0,0.8040948,-3.4627884,9.2434909)"
       x1="13.079692"
       y1="20.730078"
       x2="16.36186"
       y2="32.979298" />
    <linearGradient
       id="linearGradient6087-437-184-795-110">
      <stop
         style="stop-color:#ffffff;stop-opacity:1;"
         offset="0"
         id="stop4655" />
      <stop
         style="stop-color:#ffffff;stop-opacity:0;"
         offset="1"
         id="stop4657" />
    </linearGradient>
    <radialGradient
       inkscape:collect="always"
       xlink:href="#linearGradient6087-437-184-795-110"
       id="radialGradient2582"
       gradientUnits="userSpaceOnUse"
       gradientTransform="matrix(0,0.9862682,-1.6271642,0,26.375101,14.93757)"
       cx="7.2646537"
       cy="8.3021259"
       fx="7.2646537"
       fy="8.3021259"
       r="20.979567" />
  </defs>
  <sodipodi:namedview
     id="base"
     pagecolor="#ffffff"
     bordercolor="#666666"
     borderopacity="1.0"
     inkscape:pageopacity="0.0"
     inkscape:pageshadow="2"
     inkscape:zoom="7"
     inkscape:cx="24"
     inkscape:cy="24"
     inkscape:current-layer="layer1"
     showgrid="true"
     inkscape:grid-bbox="true"
     inkscape:document-units="px"
     inkscape:window-width="640"
     inkscape:window-height="679"
     inkscape:window-x="798"
     inkscape:window-y="134" />
  <metadata
     id="metadata3444">
    <rdf:RDF>
      <cc:Work
         rdf:about="">
        <dc:format>image/svg+xml</dc:format>
        <dc:type
           rdf:resource="http://purl.org/dc/dcmitype/StillImage" />
      </cc:Work>
    </rdf:RDF>
  </metadata>
  <g
     id="layer1"
     inkscape:label="Layer 1"
     inkscape:groupmode="layer">
    <path
       style="opacity:1;fill:url(#linearGradient3437);fill-opacity:1;stroke:url(#radialGradient2594);stroke-width:1.00000011999999994;stroke-linecap:round;stroke-linejoin:round;stroke-miterlimit:4;stroke-dasharray:none;stroke-opacity:1;display:inline"
       d="M 5.5033529,8.4999995 C 4.8130812,8.5076711 4.5033529,8.8421456 4.5033529,9.4999995 L 4.5033529,11.506647 L 3.5033529,11.506647 C 2.8130801,11.514319 2.503353,11.848794 2.503353,12.506647 C 2.5377645,22.796692 2.5162089,33.22103 2.503353,43.5 C 41.412949,43.5 45.503352,38.717662 45.503352,18.958166 L 45.503352,12.506647 C 45.503352,11.848794 44.949148,11.498976 44.258873,11.506647 L 21.503353,11.506647 L 21.503353,9.4999995 C 21.503353,8.8421456 21.193624,8.492328 20.503353,8.4999995 L 5.5033529,8.4999995 z"
       id="path6387"
       sodipodi:nodetypes="ccccccccccccc"
       inkscape:transform-center-x="-22.793602"
       inkscape:transform-center-y="-23.577396" />
    <g
       id="g2530"
       style="opacity:0.40000000000000002"
       transform="matrix(0.9583333,0,0,0.6666667,1.0033537,15)">
      <rect
         id="rect2532"
         x="4"
         y="39"
         width="40"
         height="9"
         style="opacity:1;fill:url(#linearGradient7596);fill-opacity:1;fill-rule:nonzero;stroke:none;stroke-width:1;stroke-linecap:round;stroke-linejoin:miter;marker:none;marker-start:none;marker-mid:none;marker-end:none;stroke-miterlimit:4;stroke-dasharray:none;stroke-dashoffset:0;stroke-opacity:1;visibility:visible;display:inline;overflow:visible" />
      <path
         d="M 44,39.00031 C 44,39.00031 44,47.999814 44,47.999814 C 45.654593,48.016755 48.000001,45.983481 48,43.499483 C 48,41.015484 46.153598,39.00031 44,39.00031 z"
         id="path2534"
         style="opacity:1;fill:url(#radialGradient7598);fill-opacity:1;fill-rule:nonzero;stroke:none;stroke-width:1;stroke-linecap:round;stroke-linejoin:miter;marker:none;marker-start:none;marker-mid:none;marker-end:none;stroke-miterlimit:4;stroke-dasharray:none;stroke-dashoffset:0;stroke-opacity:1;visibility:visible;display:inline;overflow:visible"
         sodipodi:nodetypes="cccc" />
      <path
         id="path2536"
         d="M 4,39.00031 C 4,39.00031 4,47.999814 4,47.999814 C 2.3454068,48.016755 0,45.983481 0,43.499483 C 0,41.015484 1.8464008,39.00031 4,39.00031 z"
         style="opacity:1;fill:url(#radialGradient7600);fill-opacity:1;fill-rule:nonzero;stroke:none;stroke-width:1;stroke-linecap:round;stroke-linejoin:miter;marker:none;marker-start:none;marker-mid:none;marker-end:none;stroke-miterlimit:4;stroke-dasharray:none;stroke-dashoffset:0;stroke-opacity:1;visibility:visible;display:inline;overflow:visible"
         sodipodi:nodetypes="cccc" />
    </g>
    <path
       style="opacity:1;fill:url(#radialGradient3429);fill-opacity:1;stroke:url(#linearGradient3413);stroke-width:1.00000024000000010;stroke-linecap:round;stroke-linejoin:round;stroke-miterlimit:4;stroke-dashoffset:0;stroke-opacity:1"
       d="M 1.0653529,21.5 C -0.0073542458,21.600992 0.56587995,22.779221 0.48035285,23.366173 C 0.78081396,24.583142 2.4567753,42.800041 2.6596029,44.11273 C 3.0014388,44.901183 4.2540374,44.497415 5.0477197,44.597505 C 18.241264,44.597505 31.434809,44.597505 44.628353,44.597505 C 45.717732,44.510429 45.26481,43.448184 45.418056,42.84026 C 45.480123,41.955713 47.124622,28.100499 47.597353,22.093703 C 47.346181,21.31456 46.109606,21.5 45.334353,21.5 C 31.244975,21.5 15.154731,21.5 1.0653529,21.5 z"
       id="path7314"
       sodipodi:nodetypes="ccccccccc" />
    <path
       sodipodi:nodetypes="ccccccccc"
       id="path2541"
       d="M 1.0613529,21.304912 L 46.958353,21.305242 C 47.592513,21.305242 48.003353,21.668251 48.003353,22.119556 L 45.75899,44.114561 C 45.75899,44.565866 45.248458,44.929191 44.6143,44.929191 L 3.4053651,44.929191 C 2.7712052,44.929191 2.2606724,44.565866 2.2606724,44.114561 L 0.016352854,22.119543 C 0.016352854,21.668237 0.42719295,21.304912 1.0613529,21.304912 z"
       style="opacity:0.40000000000000002;fill:url(#linearGradient2588);fill-opacity:1;stroke:none;stroke-width:1;stroke-linecap:round;stroke-linejoin:round;stroke-miterlimit:4;stroke-dashoffset:0;stroke-opacity:1" />
    <path
       sodipodi:nodetypes="ccccccc"
       id="path8263"
       d="M 1.0613529,21 L 46.958353,21 C 47.592513,21 48.003353,21.663907 48.003353,22.109377 L 47.543353,28.112292 L 0.70035285,33.94083 L 0.016352854,22.109006 C 0.016352854,21.663538 0.42719295,21 1.0613529,21 z"
       style="opacity:0.20000000000000001;fill:url(#linearGradient2585);fill-opacity:1;stroke:none;stroke-width:1;stroke-linecap:round;stroke-linejoin:round;stroke-miterlimit:4;stroke-dashoffset:0;stroke-opacity:1" />
    <path
       style="opacity:0.40000000000000002;fill:none;fill-rule:evenodd;stroke:url(#radialGradient2582);stroke-width:0.99999981999999998;stroke-linecap:round;stroke-linejoin:round;stroke-miterlimit:4;stroke-dasharray:none;stroke-opacity:1"
       d="M 46.503353,22.5 C 32.972103,22.5 15.034603,22.5 1.5033529,22.5 C 1.7235372,23.393165 3.4305627,42.190463 3.7333632,43.661942"
       id="path2544"
       sodipodi:nodetypes="ccc" />
  </g>
</svg>
